X:1
T:Title
%%score ( 1 2 ) { 3 | 4 }
L:1/8
Q:1/4=110
M:9/8
K:Eb
V:1 treble nm="Grand Piano, Soprano"
V:2 treble 
V:3 bass nm="Choir Pad, Cow Hollow, 87.87 D"
V:4 bass 
V:1
 [EG]2 [FA] [GB]3 [GB]3 | [Ge][Bd][Ac] [GB]3 [EG]3 | [EG]2 [EB] [DB]3 [DF]3 | [EG]2 [FA] [EG]6 | %4
w: Generated~by~NoteWorthy~Composer * * *||||
 [EG]2 [FA] [GB]3 [GB]3 | [Ge][Bd][Ac] [GB]3 [EG]3 | [GB]2 [Ge] [Fd]3- [Fd]2 [Ec] | %7
w: |||
 [DB]2 [E=A] [DB]6 | A-[Ac][Ad] [Ge]3- [Ge]2 [GB] | [Ad]2 [Ac] [GB]3 [EG]3 | %10
w: |||
 [GB]2 [Ac] [AB]3- [AB]2 [Ac] | [AB]2 [Ac] [GB]6 | G-[Gc][Ad] [Ge]3- [Ge]2 [Ge] | %13
w: |||
 [Af]2 [Ge] [Bd]3 [Ac]3 | [Fd]2 [_Ge] [=GB]3- [GB]2 [GB] | [FA]2 [B,D] [B,E]6- | [B,E]3 z3 z3 |] %17
w: ||||
V:2
 x9 | x9 | x9 | x9 | x9 | x9 | x9 | x9 | .B3 z3 z3 | x9 | x9 | x9 | .B3 z3 z3 | x9 | x9 | x9 | %16
 x9 |] %17
V:3
 B,2 B, E3 E3 | B,2 E E3 B,3 | B,2 G, F,3 B,3 | B,2 B, B,6 | B,2 B,[K:treble] E3 E3 | %5
 E2 E E3[K:bass] B,3 | E2 B, B,3- B,2 =A, | B,2 C B,6 | z3 B,2 B, B,2 B, | B,2 D E3 B,3 | %10
 z3[K:treble] D2 D D2 D | D2 D E6 | z3[K:bass] B,2 B, B,2 B, | B,2 B,[K:treble] E3 E3 | %14
 z3 E2 E E2[K:bass] B, | B,2 A, G,6- | G,3 z3 z3 |] %17
V:4
 E,2 E, E,3 E,3 | E,2 E, E,3 E,3 | E,2 E, B,,3 B,,3 | B,,2 B,, E,6 | E,2 E, E,3 E,3 | %5
 E,2 E, E,3 E,3 | E,2 E, F,3- F,2 F, | F,2 F, B,,6 | z3 E,2 E, E,2 E, | B,,2 B,, E,3 E,3 | %10
 z3 F,2 F, F,2 F, | B,,2 B,, E,6 | z3 E,2 E, E,2 E, | E,2 G, A,3 A,3 | z3 B,2 B, .B,3 | %15
 B,,2 B,, E,6- | E,3 z3 z3 |] %17

